public/icons/BSD-Light.svg

<svg xmlns="http://www.w3.org/2000/svg" width="256" height="256" fill="none" viewBox="0 0 256 256"><rect width="256" height="256" fill="#F4F2ED" rx="60"/><path fill="#D10000" d="M146.655 161.923C151.184 202.415 189.673 203.509 206.653 207.887C256.462 217.736 231.558 236.341 211.181 236.341L212.313 239.624L169.296 240.719L204.389 221.02L207.785 229.775C213.445 231.963 250.802 218.831 190.805 213.359C165.9 208.981 150.051 203.509 140.995 192.566L110.43 210.076C102.506 192.566 78.7335 185.999 88.9218 163.017"/><path stroke="#000" stroke-linecap="round" stroke-linejoin="round" stroke-width="1.113" d="M146.655 161.923C151.184 202.415 189.673 203.509 206.653 207.887C256.462 217.736 231.558 236.341 211.181 236.341L212.313 239.624L169.296 240.719L204.389 221.02L207.785 229.775C213.445 231.963 250.802 218.831 190.805 213.359C165.9 208.981 150.051 203.509 140.995 192.566L110.43 210.076C102.506 192.566 78.7335 185.999 88.9218 163.017"/><path fill="gold" stroke="#000" stroke-linecap="round" stroke-linejoin="round" stroke-width="1.113" d="M139.863 185.999C142.127 187.094 145.523 182.716 144.391 180.527L61.7531 121.431C61.7531 118.148 69.6773 111.581 58.357 102.826L59.4891 100.637L44.7727 94.071C47.0367 98.4486 49.3008 99.543 51.5648 107.204L56.093 105.015C60.6211 110.487 60.6211 114.864 56.093 117.053L48.1687 111.581C48.1687 110.487 49.3008 109.392 49.3008 108.298C49.3008 108.298 48.1687 107.204 44.7727 107.204C42.5086 107.204 37.9805 102.826 34.5844 102.826C34.5844 106.109 40.2445 111.581 40.2445 117.053L43.6406 114.864C47.0367 115.959 49.3008 118.148 51.5648 121.431C48.1687 125.808 43.6406 127.997 34.5844 123.619C34.5844 121.431 36.8484 120.336 36.8484 118.148C32.3203 118.148 26.6602 114.864 21 111.581C23.2641 119.242 30.0562 127.997 36.8484 130.186C48.1687 134.563 52.6969 126.903 58.357 126.903L139.863 185.999Z"/><path fill="#D10000" d="M108.166 114.864L74.2055 74.3721C76.4695 68.9002 75.3375 61.2395 74.2055 57.9563C68.5453 39.899 80.9977 31.6911 92.318 22.936C101.374 16.3697 105.902 15.2753 108.166 16.3697C110.43 18.5585 99.1102 25.1248 96.8461 32.7855C96.8461 32.7855 94.582 44.8237 102.506 39.3518C109.298 36.0686 118.355 33.8799 128.543 36.0686C136.467 37.163 148.92 41.5406 156.844 50.2956C180.616 45.9181 167.032 31.6911 164.768 22.936C172.692 16.3697 214.011 56.862 163.636 83.1272C163.636 98.4486 160.24 108.298 150.052 117.053C137.599 126.903 145.523 131.28 147.788 137.846C153.448 156.451 151.184 168.489 128.543 171.772C112.695 173.961 110.43 180.527 97.9781 171.772"/><path stroke="#000" stroke-linecap="round" stroke-linejoin="round" stroke-width="1.113" d="M108.166 114.864L74.2055 74.3721C76.4695 68.9002 75.3375 61.2395 74.2055 57.9563C68.5453 39.899 80.9977 31.6911 92.318 22.936C101.374 16.3697 105.902 15.2753 108.166 16.3697C110.43 18.5585 99.1102 25.1248 96.8461 32.7855C96.8461 32.7855 94.582 44.8237 102.506 39.3518C109.298 36.0686 118.355 33.8799 128.543 36.0686C136.467 37.163 148.92 41.5406 156.844 50.2956C180.616 45.9181 167.032 31.6911 164.768 22.936C172.692 16.3697 214.011 56.862 163.636 83.1272C163.636 98.4486 160.24 108.298 150.052 117.053C137.599 126.903 145.523 131.28 147.788 137.846C153.448 156.451 151.184 168.489 128.543 171.772C112.695 173.961 110.43 180.527 97.9781 171.772"/><path fill="#D10000" d="M102.506 49.2013C103.638 44.8238 92.3179 37.1631 79.8656 60.1452C78.7335 63.4283 74.2054 72.1834 74.2054 72.1834C73.0734 76.5609 71.9413 82.0329 69.6773 84.2216C58.357 95.1655 64.0171 109.392 78.7335 114.864C82.1296 115.959 92.3179 123.619 99.1101 126.903C102.506 129.091 99.1101 136.752 93.4499 135.658C62.8851 129.091 61.7531 149.885 74.2054 153.168L118.355 150.979"/><path stroke="#000" stroke-linecap="round" stroke-linejoin="round" stroke-width="1.113" d="M102.506 49.2013C103.638 44.8238 92.3179 37.1631 79.8656 60.1452C78.7335 63.4283 74.2054 72.1834 74.2054 72.1834C73.0734 76.5609 71.9413 82.0329 69.6773 84.2216C58.357 95.1655 64.0171 109.392 78.7335 114.864C82.1296 115.959 92.3179 123.619 99.1101 126.903C102.506 129.091 99.1101 136.752 93.4499 135.658C62.8851 129.091 61.7531 149.885 74.2054 153.168L118.355 150.979"/><path stroke="#000" stroke-linecap="round" stroke-linejoin="round" stroke-width="1.113" d="M109.298 48.1068C113.826 43.7292 121.751 43.7292 125.147 50.2956C126.279 52.4843 126.279 54.6731 127.411 55.7675"/><path fill="#D10000" d="M76.4695 107.204C82.1296 108.298 82.1296 111.581 88.9218 117.053C100.242 125.808 113.827 118.147 117.223 115.959C121.751 113.77 121.751 110.487 126.279 112.676"/><path stroke="#000" stroke-linecap="round" stroke-linejoin="round" stroke-width="1.67" d="M76.4695 107.204C82.1296 108.298 82.1296 111.581 88.9218 117.053C100.242 125.808 113.827 118.147 117.223 115.959C121.751 113.77 121.751 110.487 126.279 112.676"/><path fill="#D10000" d="M91.186 91.8823C77.6017 84.2216 74.2056 96.2598 79.8657 101.732C80.9978 102.826 84.3938 102.826 86.6579 103.921C88.922 105.015 90.054 100.637 95.7142 103.373C100.242 106.109 102.506 100.637 97.9782 98.4486"/><path stroke="#000" stroke-linecap="round" stroke-linejoin="round" stroke-width="1.113" d="M91.186 91.8823C77.6017 84.2216 74.2056 96.2598 79.8657 101.732C80.9978 102.826 84.3938 102.826 86.6579 103.921C88.922 105.015 90.054 100.637 95.7142 103.373C100.242 106.109 102.506 100.637 97.9782 98.4486"/><path fill="#fff" stroke="#000" stroke-linecap="round" stroke-linejoin="round" stroke-width="1.113" d="M99.1102 54.6733C99.1102 51.3901 92.318 49.2014 84.3937 61.2396C75.3375 75.4666 76.4695 83.1273 80.9977 86.4104C84.3937 88.5992 87.7898 87.5048 91.1859 77.6554C93.45 72.1834 99.1102 57.9564 99.1102 54.6733Z"/><path fill="#fff" stroke="#000" stroke-linecap="round" stroke-linejoin="round" stroke-width="1.113" d="M112.694 53.5788C124.015 51.39 122.883 91.8823 104.77 92.9766C84.3937 94.071 97.9781 56.8619 112.694 53.5788Z"/><path fill="#000" d="M107.034 73.2775C112.694 77.655 105.902 95.1652 97.978 88.5989C92.3179 83.127 100.242 67.8056 107.034 73.2775Z"/><path fill="#000" d="M87.7898 71.0888C93.4499 75.4664 84.3937 89.6934 80.9976 83.1271C77.6015 78.7495 80.9976 66.7113 87.7898 71.0888Z"/><path fill="#fff" d="M84.3936 72.1831C85.5257 72.1831 85.5257 78.7494 84.3936 78.7494C80.9975 78.7494 82.1296 72.1831 84.3936 72.1831Z"/><path fill="#fff" d="M102.506 76.5608C103.638 76.5608 103.638 80.9383 101.374 80.9383C100.242 80.9383 99.1102 76.5608 102.506 76.5608Z"/><path fill="#D10000" d="M104.77 171.772C99.1102 171.772 95.7141 172.867 88.9219 165.206Z"/><path stroke="#000" stroke-linecap="round" stroke-linejoin="round" stroke-width="1.113" d="M104.77 171.772C99.1102 171.772 95.7141 172.867 88.9219 165.206"/><path fill="#D10000" d="M99.1102 165.206C69.6774 167.395 92.318 126.902 114.959 144.413C119.487 147.696 124.015 148.79 130.807 146.601"/><path stroke="#000" stroke-linecap="round" stroke-linejoin="round" stroke-width="1.113" d="M99.1102 165.206C69.6774 167.395 92.318 126.902 114.959 144.413C119.487 147.696 124.015 148.79 130.807 146.601"/><path fill="#D10000" stroke="#000" stroke-linecap="round" stroke-linejoin="round" stroke-width="1.113" d="M94.5821 145.507C97.9782 150.979 86.6579 159.734 79.8657 154.262C73.0735 148.79 91.186 141.13 94.5821 145.507Z"/><path fill="#D10000" stroke="#000" stroke-linecap="round" stroke-linejoin="round" stroke-width="1.113" d="M87.7898 134.563C61.753 131.28 62.8851 149.885 74.2054 153.168C86.6577 156.451 100.242 138.941 87.7898 134.563Z"/><path fill="#D10000" stroke="#000" stroke-linecap="round" stroke-linejoin="round" stroke-width="1.113" d="M80.9977 140.035C82.1297 147.696 65.1492 152.073 61.7532 141.129C59.4891 133.469 78.7336 122.525 80.9977 140.035Z"/><path fill="#D10000" stroke="#000" stroke-linecap="round" stroke-linejoin="round" stroke-width="1.113" d="M84.3937 124.714C91.1859 133.469 74.2054 137.846 69.6773 132.374C60.621 122.525 78.7335 118.147 84.3937 124.714Z"/><path fill="#00B000" stroke="#000" stroke-linecap="round" stroke-linejoin="round" stroke-width="1.113" d="M60.6211 206.793C75.3375 205.698 100.242 205.698 93.45 194.754C91.1859 191.471 92.318 189.283 92.318 187.094C94.582 195.849 112.695 190.377 111.562 201.321L90.0539 229.775L60.6211 206.793Z"/><path fill="#00B000" d="M126.279 195.849C130.807 193.66 135.335 195.849 139.863 192.566C147.787 200.226 147.787 211.17 150.051 213.359L111.562 228.68L86.6577 216.642C97.978 203.509 110.43 208.981 111.562 201.321C113.826 188.188 120.619 191.471 126.279 196.943C126.279 196.943 127.411 207.887 124.015 207.887C116.091 208.981 99.1101 215.548 99.1101 215.548"/><path stroke="#000" stroke-linecap="round" stroke-linejoin="round" stroke-width="1.113" d="M126.279 195.849C130.807 193.66 135.335 195.849 139.863 192.566C147.787 200.226 147.787 211.17 150.051 213.359L111.562 228.68L86.6577 216.642C97.978 203.509 110.43 208.981 111.562 201.321C113.826 188.188 120.619 191.471 126.279 196.943C126.279 196.943 127.411 207.887 124.015 207.887C116.091 208.981 99.1101 215.548 99.1101 215.548"/><path fill="#fff" stroke="#000" stroke-linecap="round" stroke-linejoin="round" stroke-width="1.113" d="M41.3765 212.265C43.6405 208.982 75.3374 200.226 75.3374 213.359L56.0929 223.209L41.3765 212.265Z"/><path fill="#F4FFF4" stroke="#000" stroke-linecap="round" stroke-linejoin="round" stroke-width="1.113" d="M142.127 203.51C142.127 211.17 135.335 210.076 134.203 206.793C131.939 199.132 142.127 198.038 142.127 203.51Z"/><path fill="#fff" d="M67.4133 223.208C39.1125 226.492 39.1125 218.831 39.1125 218.831C39.1125 213.359 39.1125 213.359 41.3766 212.265C44.7727 216.642 64.0172 218.831 73.0735 214.453"/><path stroke="#000" stroke-linecap="round" stroke-linejoin="round" stroke-width="1.113" d="M67.4133 223.208C39.1125 226.492 39.1125 218.831 39.1125 218.831C39.1125 213.359 39.1125 213.359 41.3766 212.265C44.7727 216.642 64.0172 218.831 73.0735 214.453"/><path fill="#fff" stroke="#000" stroke-linecap="round" stroke-linejoin="round" stroke-width="1.113" d="M108.167 224.303C108.167 204.604 75.3376 206.793 68.5454 218.831L83.2618 229.775L108.167 224.303Z"/><path fill="#fff" stroke="#000" stroke-linecap="round" stroke-linejoin="round" stroke-width="1.113" d="M148.92 212.265C151.184 211.17 150.052 215.548 150.052 219.925C127.411 234.152 79.8657 235.247 67.4133 225.397C67.4133 221.02 67.4133 219.925 68.5454 217.736C75.3375 228.68 139.863 224.303 148.92 212.265Z"/><path fill="#D10000" d="M95.7141 199.132L107.034 200.226L95.7141 199.132ZM93.45 202.415L104.77 204.604L93.45 202.415ZM87.7899 204.604L96.8461 206.793L87.7899 204.604ZM78.7336 206.793L92.318 208.982L78.7336 206.793ZM112.695 200.226L126.279 201.321L112.695 200.226ZM111.563 203.51L125.147 205.698L111.563 203.51ZM107.034 206.793L114.959 207.887L107.034 206.793ZM100.242 208.982L109.298 210.076Z"/><path stroke="#0FF" stroke-linecap="round" stroke-linejoin="round" stroke-width="1.113" d="M100.242 208.982L109.298 210.076M95.7141 199.132L107.034 200.226L95.7141 199.132ZM93.45 202.415L104.77 204.604L93.45 202.415ZM87.7899 204.604L96.8461 206.793L87.7899 204.604ZM78.7336 206.793L92.318 208.982L78.7336 206.793ZM112.695 200.226L126.279 201.321L112.695 200.226ZM111.563 203.51L125.147 205.698L111.563 203.51ZM107.034 206.793L114.959 207.887L107.034 206.793Z"/></svg>

<svg xmlns="http://www.w3.org/2000/svg" width="256" height="256" fill="none"><rect width="256" height="256" fill="#F4F2ED" rx="60"/><path fill="#D10000" d="M146.655 161.923c4.529 40.492 43.018 41.586 59.998 45.964 49.809 9.849 24.905 28.454 4.528 28.454l1.132 3.283-43.017 1.095 35.093-19.699 3.396 8.755c5.66 2.188 43.017-10.944-16.98-16.416-24.905-4.378-40.754-9.85-49.81-20.793l-30.565 17.51c-7.924-17.51-31.696-24.077-21.508-47.059"/><path stroke="#000" stroke-linecap="round" stroke-linejoin="round" stroke-width="1.113" d="M146.655 161.923c4.529 40.492 43.018 41.586 59.998 45.964 49.809 9.849 24.905 28.454 4.528 28.454l1.132 3.283-43.017 1.095 35.093-19.699 3.396 8.755c5.66 2.188 43.017-10.944-16.98-16.416-24.905-4.378-40.754-9.85-49.81-20.793l-30.565 17.51c-7.924-17.51-31.696-24.077-21.508-47.059"/><path fill="gold" stroke="#000" stroke-linecap="round" stroke-linejoin="round" stroke-width="1.113" d="M139.863 185.999c2.264 1.095 5.66-3.283 4.528-5.472l-82.638-59.096c0-3.283 7.924-9.85-3.396-18.605l1.132-2.189-14.716-6.566c2.264 4.378 4.528 5.472 6.792 13.133l4.528-2.189c4.528 5.472 4.528 9.849 0 12.038l-7.924-5.472c0-1.094 1.132-2.189 1.132-3.283 0 0-1.132-1.094-4.528-1.094-2.264 0-6.793-4.378-10.189-4.378 0 3.283 5.66 8.755 5.66 14.227l3.397-2.189c3.396 1.095 5.66 3.284 7.924 6.567-3.396 4.377-7.924 6.566-16.98 2.188 0-2.188 2.263-3.283 2.263-5.471-4.528 0-10.188-3.284-15.848-6.567 2.264 7.661 9.056 16.416 15.848 18.605 11.32 4.377 15.849-3.283 21.509-3.283z"/><path fill="#D10000" d="m108.166 114.864-33.96-40.492c2.263-5.472 1.132-13.132 0-16.416-5.66-18.057 6.792-26.265 18.112-35.02 9.056-6.566 13.584-7.66 15.848-6.566 2.264 2.188-9.056 8.755-11.32 16.415 0 0-2.264 12.039 5.66 6.567 6.792-3.283 15.849-5.472 26.037-3.283 7.924 1.094 20.377 5.472 28.301 14.227 23.772-4.378 10.188-18.605 7.924-27.36 7.924-6.566 49.243 33.926-1.132 60.191 0 15.322-3.396 25.171-13.584 33.926-12.453 9.85-4.529 14.227-2.264 20.793 5.66 18.605 3.396 30.643-19.245 33.926-15.848 2.189-18.113 8.755-30.565 0"/><path stroke="#000" stroke-linecap="round" stroke-linejoin="round" stroke-width="1.113" d="m108.166 114.864-33.96-40.492c2.263-5.472 1.132-13.132 0-16.416-5.66-18.057 6.792-26.265 18.112-35.02 9.056-6.566 13.584-7.66 15.848-6.566 2.264 2.188-9.056 8.755-11.32 16.415 0 0-2.264 12.039 5.66 6.567 6.792-3.283 15.849-5.472 26.037-3.283 7.924 1.094 20.377 5.472 28.301 14.227 23.772-4.378 10.188-18.605 7.924-27.36 7.924-6.566 49.243 33.926-1.132 60.191 0 15.322-3.396 25.171-13.584 33.926-12.453 9.85-4.529 14.227-2.264 20.793 5.66 18.605 3.396 30.643-19.245 33.926-15.848 2.189-18.113 8.755-30.565 0"/><path fill="#D10000" d="M102.506 49.201c1.132-4.377-10.188-12.038-22.64 10.944-1.132 3.283-5.66 12.038-5.66 12.038-1.133 4.378-2.265 9.85-4.529 12.039-11.32 10.944-5.66 25.17 9.057 30.642 3.396 1.095 13.584 8.755 20.376 12.039 3.396 2.188 0 9.849-5.66 8.755-30.565-6.567-31.697 14.227-19.245 17.51l44.15-2.189"/><path stroke="#000" stroke-linecap="round" stroke-linejoin="round" stroke-width="1.113" d="M102.506 49.201c1.132-4.377-10.188-12.038-22.64 10.944-1.132 3.283-5.66 12.038-5.66 12.038-1.133 4.378-2.265 9.85-4.529 12.039-11.32 10.944-5.66 25.17 9.057 30.642 3.396 1.095 13.584 8.755 20.376 12.039 3.396 2.188 0 9.849-5.66 8.755-30.565-6.567-31.697 14.227-19.245 17.51l44.15-2.189M109.298 48.107c4.528-4.378 12.453-4.378 15.849 2.189 1.132 2.188 1.132 4.377 2.264 5.471"/><path fill="#D10000" d="M76.47 107.204c5.66 1.094 5.66 4.377 12.452 9.849 11.32 8.755 24.905 1.094 28.301-1.094 4.528-2.189 4.528-5.472 9.056-3.283"/><path stroke="#000" stroke-linecap="round" stroke-linejoin="round" stroke-width="1.67" d="M76.47 107.204c5.66 1.094 5.66 4.377 12.452 9.849 11.32 8.755 24.905 1.094 28.301-1.094 4.528-2.189 4.528-5.472 9.056-3.283"/><path fill="#D10000" d="M91.186 91.882c-13.584-7.66-16.98 4.378-11.32 9.85 1.132 1.094 4.528 1.094 6.792 2.189s3.396-3.284 9.056-.548c4.528 2.736 6.792-2.736 2.264-4.924"/><path stroke="#000" stroke-linecap="round" stroke-linejoin="round" stroke-width="1.113" d="M91.186 91.882c-13.584-7.66-16.98 4.378-11.32 9.85 1.132 1.094 4.528 1.094 6.792 2.189s3.396-3.284 9.056-.548c4.528 2.736 6.792-2.736 2.264-4.924"/><path fill="#fff" stroke="#000" stroke-linecap="round" stroke-linejoin="round" stroke-width="1.113" d="M99.11 54.673c0-3.283-6.792-5.472-14.716 6.567-9.056 14.227-7.925 21.887-3.396 25.17 3.396 2.19 6.792 1.095 10.188-8.755 2.264-5.472 7.924-19.699 7.924-22.982"/><path fill="#fff" stroke="#000" stroke-linecap="round" stroke-linejoin="round" stroke-width="1.113" d="M112.694 53.579c11.321-2.189 10.189 38.303-7.924 39.398-20.376 1.094-6.792-36.115 7.924-39.398"/><path fill="#000" d="M107.034 73.278c5.66 4.377-1.132 21.887-9.056 15.32-5.66-5.471 2.264-20.792 9.056-15.32M87.79 71.089c5.66 4.377-3.396 18.604-6.792 12.038-3.397-4.377 0-16.416 6.792-12.038"/><path fill="#fff" d="M84.394 72.183c1.132 0 1.132 6.566 0 6.566-3.397 0-2.264-6.566 0-6.566M102.506 76.56c1.132 0 1.132 4.378-1.132 4.378-1.132 0-2.264-4.377 1.132-4.377"/><path fill="#D10000" d="M104.77 171.772c-5.66 0-9.056 1.095-15.848-6.566Z"/><path stroke="#000" stroke-linecap="round" stroke-linejoin="round" stroke-width="1.113" d="M104.77 171.772c-5.66 0-9.056 1.095-15.848-6.566"/><path fill="#D10000" d="M99.11 165.206c-29.433 2.189-6.792-38.304 15.849-20.793 4.528 3.283 9.056 4.377 15.848 2.188"/><path stroke="#000" stroke-linecap="round" stroke-linejoin="round" stroke-width="1.113" d="M99.11 165.206c-29.433 2.189-6.792-38.304 15.849-20.793 4.528 3.283 9.056 4.377 15.848 2.188"/><path fill="#D10000" stroke="#000" stroke-linecap="round" stroke-linejoin="round" stroke-width="1.113" d="M94.582 145.507c3.396 5.472-7.924 14.227-14.716 8.755-6.793-5.472 11.32-13.132 14.716-8.755"/><path fill="#D10000" stroke="#000" stroke-linecap="round" stroke-linejoin="round" stroke-width="1.113" d="M87.79 134.563c-26.037-3.283-24.905 15.322-13.585 18.605 12.453 3.283 26.037-14.227 13.585-18.605"/><path fill="#D10000" stroke="#000" stroke-linecap="round" stroke-linejoin="round" stroke-width="1.113" d="M80.998 140.035c1.132 7.661-15.849 12.038-19.245 1.094-2.264-7.66 16.98-18.604 19.245-1.094"/><path fill="#D10000" stroke="#000" stroke-linecap="round" stroke-linejoin="round" stroke-width="1.113" d="M84.394 124.714c6.792 8.755-10.189 13.132-14.717 7.66-9.056-9.849 9.057-14.227 14.717-7.66"/><path fill="#00B000" stroke="#000" stroke-linecap="round" stroke-linejoin="round" stroke-width="1.113" d="M60.621 206.793c14.717-1.095 39.621-1.095 32.829-12.039-2.264-3.283-1.132-5.471-1.132-7.66 2.264 8.755 20.377 3.283 19.244 14.227l-21.508 28.454z"/><path fill="#00B000" d="M126.279 195.849c4.528-2.189 9.056 0 13.584-3.283 7.924 7.66 7.924 18.604 10.188 20.793l-38.489 15.321-24.904-12.038c11.32-13.133 23.772-7.661 24.904-15.321 2.264-13.133 9.057-9.85 14.717-4.378 0 0 1.132 10.944-2.264 10.944-7.924 1.094-24.905 7.661-24.905 7.661"/><path stroke="#000" stroke-linecap="round" stroke-linejoin="round" stroke-width="1.113" d="M126.279 195.849c4.528-2.189 9.056 0 13.584-3.283 7.924 7.66 7.924 18.604 10.188 20.793l-38.489 15.321-24.904-12.038c11.32-13.133 23.772-7.661 24.904-15.321 2.264-13.133 9.057-9.85 14.717-4.378 0 0 1.132 10.944-2.264 10.944-7.924 1.094-24.905 7.661-24.905 7.661"/><path fill="#fff" stroke="#000" stroke-linecap="round" stroke-linejoin="round" stroke-width="1.113" d="M41.377 212.265c2.264-3.283 33.96-12.039 33.96 1.094l-19.244 9.85z"/><path fill="#F4FFF4" stroke="#000" stroke-linecap="round" stroke-linejoin="round" stroke-width="1.113" d="M142.127 203.51c0 7.66-6.792 6.566-7.924 3.283-2.264-7.661 7.924-8.755 7.924-3.283"/><path fill="#fff" d="M67.413 223.208c-28.3 3.284-28.3-4.377-28.3-4.377 0-5.472 0-5.472 2.264-6.566 3.396 4.377 22.64 6.566 31.696 2.188"/><path stroke="#000" stroke-linecap="round" stroke-linejoin="round" stroke-width="1.113" d="M67.413 223.208c-28.3 3.284-28.3-4.377-28.3-4.377 0-5.472 0-5.472 2.264-6.566 3.396 4.377 22.64 6.566 31.696 2.188"/><path fill="#fff" stroke="#000" stroke-linecap="round" stroke-linejoin="round" stroke-width="1.113" d="M108.167 224.303c0-19.699-32.83-17.51-39.622-5.472l14.717 10.944z"/><path fill="#fff" stroke="#000" stroke-linecap="round" stroke-linejoin="round" stroke-width="1.113" d="M148.92 212.265c2.264-1.095 1.132 3.283 1.132 7.66-22.641 14.227-70.186 15.322-82.639 5.472 0-4.377 0-5.472 1.132-7.661 6.793 10.944 71.318 6.567 80.375-5.471"/><path fill="#D10000" d="m95.714 199.132 11.32 1.094zm-2.264 3.283 11.32 2.189zm-5.66 2.189 9.056 2.189zm-9.056 2.189 13.584 2.189zm33.961-6.567 13.584 1.095zm-1.132 3.284 13.584 2.188zm-4.529 3.283 7.925 1.094zm-6.792 2.189 9.056 1.094Z"/><path stroke="#0FF" stroke-linecap="round" stroke-linejoin="round" stroke-width="1.113" d="m100.242 208.982 9.056 1.094m-13.584-10.944 11.32 1.094zm-2.264 3.283 11.32 2.189zm-5.66 2.189 9.056 2.189zm-9.056 2.189 13.584 2.189zm33.961-6.567 13.584 1.095zm-1.132 3.284 13.584 2.188zm-4.529 3.283 7.925 1.094z"/></svg>
